X: 9682
T: Dear Irish Boy, The
R: waltz
M: 3/4
K: Gminor
GA|B2 A3 G|A d3 cA|G2 A3 G|F4 GA|B2 A2 G2|
A d3 cA|A2 AG F2|G4 GA|B2 A3 G|
A d3 cA|G2 A3 G|F4 GA|B2 c3d|g2 a2 g/f/d/c/|
AB3 cd|G2 GA/G/ F2|G4||
g2 d4|g2 d3G|Af3 f2|A3G F2|g2 d4|g2 d3c|
dg3 af|g4 ga|b3 a g2|fd3 cB|Af3 A2|GF3 GA|
B3c d2|g2 a2 g/f/d/c/|AB3 cd|G2 GA/G/ F2|G4 GA|
B3c d2|g2 a2 g/f/d/c/|AB3 cd|G2 GA/G/ F2|G4||

